X:1052 
T:Ushag veg roie ny moaney dhoo
C:Traditional
O:Isle of Man
S:Mrs. Tom Callister, Balladoole 
Z:Clague collection
B:Kiaull Vannin #52
N:See also KV 401, 409
M:3/8 
L:1/8
Q:100 
K:D 
EGG |GFG |AGA |G3 |gee |dBG |A3 |G3 |EGG |GFG |A2A |G3 |gfe |dBG |A3 |G3 ||

